images/point.svg

<svg xmlns="http://www.w3.org/2000/svg" width="21" height="26">
    <path fill="#FCE6B3" fill-rule="evenodd" d="M0 9.567c.012-.184.027-.34.043-.467C.639 4.367 4.464-.001 10.502-.001c6.039 0 9.864 4.369 10.46 9.102.016.127.03.283.042.466.03.43-.3.802-.735.831l-.053.001h-.817c-.544 0-.998-.408-1.049-.942a5.553 5.553 0 0 0-.044-.353c-.584-3.676-3.641-6.505-7.804-6.505s-7.22 2.83-7.805 6.506a6.44 6.44 0 0 0-.043.352 1.048 1.048 0 0 1-1.049.942H.789a.785.785 0 0 1-.791-.779c0-.018 0-.036.002-.053zm3.027 4.217c.054.21.102.382.145.518.646 2.039 1.811 3.756 3.377 5.197.935.861 1.953 1.614 2.947 2.113.34.171.743.393 1.006.488.259-.092.672-.315 1.001-.482 1.002-.507 2.018-1.258 2.952-2.119 1.575-1.45 2.741-3.151 3.385-5.196.042-.135.09-.308.143-.516a1.052 1.052 0 0 1 1.023-.788h.84a.786.786 0 0 1 .77.958c-.031.132-.06.246-.087.342-1.31 4.747-4.853 7.612-7.391 9.1 3.793.182 6.588.713 6.588 1.3 0 .719-4.13 1.3-9.224 1.3s-9.224-.581-9.224-1.3c0-.568 2.794-1.123 6.589-1.3-2.543-1.484-6.084-4.348-7.393-9.098a8.116 8.116 0 0 1-.087-.345.78.78 0 0 1 .77-.957h.848c.483 0 .904.324 1.022.785zm7.475 1.815c-2.911 0-5.271-2.328-5.271-5.2 0-2.871 2.36-5.2 5.271-5.2s5.271 2.329 5.271 5.2c0 2.872-2.36 5.2-5.271 5.2zm0-2.6c1.456 0 2.636-1.164 2.636-2.6 0-1.436-1.18-2.6-2.636-2.6-1.455 0-2.635 1.164-2.635 2.6 0 1.436 1.18 2.6 2.635 2.6z"/>
</svg>

<svg 
 xmlns="http://www.w3.org/2000/svg"
 xmlns:xlink="http://www.w3.org/1999/xlink"
 width="7.408mm" height="9.172mm">
<path fill-rule="evenodd"  fill="rgb(252, 230, 179)"
 d="M-0.000,9.567 C0.012,9.383 0.027,9.227 0.043,9.100 C0.639,4.367 4.464,-0.001 10.502,-0.001 C16.541,-0.001 20.366,4.368 20.962,9.102 C20.978,9.228 20.992,9.384 21.005,9.567 L21.005,9.567 C21.034,9.997 20.704,10.369 20.269,10.398 C20.251,10.399 20.233,10.399 20.216,10.399 L19.399,10.399 C18.856,10.399 18.401,9.991 18.350,9.457 C18.337,9.321 18.322,9.203 18.307,9.104 C17.722,5.429 14.665,2.599 10.502,2.599 C6.339,2.599 3.282,5.429 2.697,9.105 C2.682,9.204 2.668,9.321 2.654,9.457 L2.654,9.457 C2.603,9.991 2.149,10.399 1.605,10.399 L0.789,10.399 C0.352,10.399 -0.002,10.050 -0.002,9.620 C-0.002,9.602 -0.001,9.584 -0.000,9.567 ZM3.027,13.784 C3.081,13.994 3.129,14.166 3.172,14.303 C3.818,16.341 4.983,18.058 6.549,19.499 C7.484,20.360 8.503,21.113 9.496,21.612 C9.836,21.784 10.239,22.005 10.502,22.100 C10.761,22.008 11.174,21.785 11.504,21.618 C12.505,21.111 13.521,20.360 14.455,19.499 C16.030,18.049 17.196,16.348 17.840,14.303 C17.883,14.168 17.930,13.995 17.983,13.787 L17.983,13.787 C18.101,13.324 18.522,12.999 19.006,12.999 L19.846,12.999 C20.283,12.999 20.637,13.349 20.637,13.779 C20.637,13.839 20.630,13.899 20.616,13.957 C20.585,14.089 20.556,14.204 20.530,14.299 C19.219,19.046 15.676,21.911 13.138,23.399 C16.932,23.581 19.726,24.112 19.726,24.699 C19.726,25.418 15.596,25.999 10.502,25.999 C5.408,25.999 1.278,25.418 1.278,24.699 C1.278,24.131 4.072,23.576 7.867,23.399 C5.324,21.915 1.784,19.051 0.474,14.301 C0.447,14.205 0.419,14.090 0.387,13.956 L0.387,13.956 C0.288,13.537 0.553,13.117 0.978,13.019 C1.036,13.006 1.097,12.999 1.157,12.999 L2.005,12.999 C2.488,12.999 2.909,13.323 3.027,13.784 ZM10.502,15.599 C7.591,15.599 5.231,13.271 5.231,10.399 C5.231,7.528 7.591,5.199 10.502,5.199 C13.413,5.199 15.773,7.528 15.773,10.399 C15.773,13.271 13.413,15.599 10.502,15.599 ZM10.502,12.999 C11.958,12.999 13.138,11.835 13.138,10.399 C13.138,8.963 11.958,7.799 10.502,7.799 C9.047,7.799 7.867,8.963 7.867,10.399 C7.867,11.835 9.047,12.999 10.502,12.999 Z"/>
</svg>
